assets/images/btn_google_play_patch.svg

<svg width="127" height="50" viewBox="0 0 127 50" fill="none" xmlns="http://www.w3.org/2000/svg">
<path fill-rule="evenodd" clip-rule="evenodd" d="M122.296 50H4.7037C2.06963 50 0 47.25 0 43.75V6.25C0 2.75 2.06963 0 4.7037 0H122.296C124.93 0 127 2.75 127 6.25V43.75C127 47.25 124.93 50 122.296 50V50Z" fill="#004177"/>
<path opacity="0.7" d="M59.0039 21V15.3633H54.5859V21H55.293V16.0039H58.3086V21H59.0039ZM62.5469 16.8672C61.957 16.8672 61.4844 17.168 61.2344 17.625H61.2188V16.9375H60.5742V22.3555H61.2539V20.3398H61.2695C61.5117 20.7852 61.9805 21.0703 62.5625 21.0703C63.5859 21.0703 64.2852 20.2422 64.2852 18.9688C64.2852 17.6953 63.582 16.8672 62.5469 16.8672ZM62.4141 20.4727C61.7188 20.4727 61.25 19.875 61.25 18.9688C61.25 18.0664 61.7188 17.4648 62.4141 17.4648C63.1367 17.4648 63.5898 18.0508 63.5898 18.9688C63.5898 19.8906 63.1367 20.4727 62.4141 20.4727ZM66.2188 21L68.2422 17.9805H68.2734V21H68.9531V16.9375H68.2812L66.2578 19.957H66.2266V16.9375H65.5469V21H66.2188ZM71.5 19.207L71.625 17.4961H72.9922V21H73.6719V16.9375H71.0117L70.8555 19.1914C70.8047 19.9375 70.6523 20.4102 70.25 20.4102C70.1523 20.4102 70.0781 20.3906 70.043 20.3789V20.9922C70.0898 21.0117 70.168 21.0352 70.2852 21.0352C71.1406 21.0352 71.418 20.3281 71.5 19.207ZM76.8203 21.0703C77.9414 21.0703 78.6992 20.2617 78.6992 18.9688C78.6992 17.6719 77.9414 16.8672 76.8203 16.8672C75.6953 16.8672 74.9375 17.6719 74.9375 18.9688C74.9375 20.2617 75.6953 21.0703 76.8203 21.0703ZM76.8203 20.4727C76.1016 20.4727 75.6289 19.9258 75.6289 18.9688C75.6289 18.0117 76.1016 17.4648 76.8203 17.4648C77.5391 17.4648 78.0078 18.0117 78.0078 18.9688C78.0078 19.9258 77.5391 20.4727 76.8203 20.4727ZM80.2383 21L81.8789 19.0469H81.9062V21H82.5781V19.0469H82.6094L84.25 21H85.1211L83.2852 18.8594L85.0586 16.9375H84.2305L82.6094 18.7344H82.5781V16.9375H81.9062V18.7344H81.8789L80.2578 16.9375H79.4219L81.2031 18.8711L79.3789 21H80.2383ZM88.7695 19.8359C88.6562 20.2188 88.2773 20.4805 87.7617 20.4805C87.0312 20.4805 86.5742 19.9688 86.5742 19.1914V19.1523H89.4883V18.8945C89.4883 17.6641 88.8125 16.8672 87.7148 16.8672C86.5938 16.8672 85.875 17.7227 85.875 18.9844C85.875 20.2617 86.582 21.0703 87.7461 21.0703C88.6328 21.0703 89.3203 20.5469 89.4375 19.8359H88.7695ZM87.7031 17.457C88.3438 17.457 88.7695 17.9414 88.7852 18.6211H86.5781C86.6211 17.9453 87.0664 17.457 87.7031 17.457ZM93.418 21H94.0977V16.9375H93.418V18.6133H91.4297V16.9375H90.75V21H91.4297V19.1719H93.418V21ZM96.2266 21L98.25 17.9805H98.2812V21H98.9609V16.9375H98.2891L96.2656 19.957H96.2344V16.9375H95.5547V21H96.2266ZM103.113 19.8359C103 20.2188 102.621 20.4805 102.105 20.4805C101.375 20.4805 100.918 19.9688 100.918 19.1914V19.1523H103.832V18.8945C103.832 17.6641 103.156 16.8672 102.059 16.8672C100.938 16.8672 100.219 17.7227 100.219 18.9844C100.219 20.2617 100.926 21.0703 102.09 21.0703C102.977 21.0703 103.664 20.5469 103.781 19.8359H103.113ZM102.047 17.457C102.688 17.457 103.113 17.9414 103.129 18.6211H100.922C100.965 17.9453 101.41 17.457 102.047 17.457ZM56.2266 31C57.0898 31 57.6211 30.5508 57.6211 29.832C57.6211 29.3359 57.2852 28.9727 56.7734 28.9023V28.8711C57.1484 28.793 57.4414 28.4062 57.4414 27.9883C57.4414 27.3359 56.9766 26.9375 56.2148 26.9375H54.4766V31H56.2266ZM55.1562 27.4883H56.1133C56.5391 27.4883 56.7695 27.6914 56.7695 28.0586C56.7695 28.4531 56.5234 28.6445 56.0117 28.6445H55.1562V27.4883ZM55.1562 29.1914H56.0664C56.6602 29.1914 56.9453 29.3945 56.9453 29.8164C56.9453 30.2266 56.6797 30.4492 56.1875 30.4492H55.1562V29.1914ZM63.0156 26.8672C62.4258 26.8672 61.9531 27.168 61.7031 27.625H61.6875V26.9375H61.043V32.3555H61.7227V30.3398H61.7383C61.9805 30.7852 62.4492 31.0703 63.0312 31.0703C64.0547 31.0703 64.7539 30.2422 64.7539 28.9688C64.7539 27.6953 64.0508 26.8672 63.0156 26.8672ZM62.8828 30.4727C62.1875 30.4727 61.7188 29.875 61.7188 28.9688C61.7188 28.0664 62.1875 27.4648 62.8828 27.4648C63.6055 27.4648 64.0586 28.0508 64.0586 28.9688C64.0586 29.8906 63.6055 30.4727 62.8828 30.4727ZM67.207 31.0703C67.7539 31.0703 68.2695 30.7656 68.5117 30.3008H68.5273V31H69.1719V28.1914C69.1719 27.3828 68.5703 26.8672 67.6172 26.8672C66.6562 26.8672 66.0547 27.4062 66.0078 28.1094H66.6641C66.75 27.7109 67.0781 27.4648 67.6016 27.4648C68.1641 27.4648 68.4922 27.7617 68.4922 28.2578V28.5977L67.3281 28.6641C66.3906 28.7188 65.8555 29.1562 65.8555 29.8516C65.8555 30.582 66.3984 31.0703 67.207 31.0703ZM67.3594 30.4922C66.8711 30.4922 66.5469 30.2383 66.5469 29.8516C66.5469 29.4688 66.8594 29.2266 67.4062 29.1914L68.4922 29.125V29.457C68.4922 30.043 68 30.4922 67.3594 30.4922ZM71.9648 31.0703C72.918 31.0703 73.5508 30.5625 73.5508 29.8125C73.5508 29.3555 73.2734 29.0195 72.7383 28.9023V28.8711C73.1602 28.7734 73.4375 28.3984 73.4375 27.9766C73.4375 27.3164 72.9336 26.8672 72.0078 26.8672C71.1484 26.8672 70.5625 27.293 70.4766 27.9648H71.1367C71.1914 27.6406 71.5273 27.4336 72.0078 27.4336C72.5312 27.4336 72.7734 27.6836 72.7734 28.0312C72.7734 28.4414 72.5 28.6445 71.9648 28.6445H71.3555V29.1992H71.9648C72.5781 29.1992 72.8828 29.3984 72.8828 29.8438C72.8828 30.2305 72.5547 30.5078 71.9648 30.5078C71.4609 30.5078 71.125 30.3008 71.0469 29.9453H70.3594C70.4297 30.6328 71.0742 31.0703 71.9648 31.0703ZM76.8047 26.8672C76.2148 26.8672 75.7422 27.168 75.4922 27.625H75.4766V26.9375H74.832V32.3555H75.5117V30.3398H75.5273C75.7695 30.7852 76.2383 31.0703 76.8203 31.0703C77.8438 31.0703 78.543 30.2422 78.543 28.9688C78.543 27.6953 77.8398 26.8672 76.8047 26.8672ZM76.6719 30.4727C75.9766 30.4727 75.5078 29.875 75.5078 28.9688C75.5078 28.0664 75.9766 27.4648 76.6719 27.4648C77.3945 27.4648 77.8477 28.0508 77.8477 28.9688C77.8477 29.8906 77.3945 30.4727 76.6719 30.4727ZM80.9961 31.0703C81.543 31.0703 82.0586 30.7656 82.3008 30.3008H82.3164V31H82.9609V28.1914C82.9609 27.3828 82.3594 26.8672 81.4062 26.8672C80.4453 26.8672 79.8438 27.4062 79.7969 28.1094H80.4531C80.5391 27.7109 80.8672 27.4648 81.3906 27.4648C81.9531 27.4648 82.2812 27.7617 82.2812 28.2578V28.5977L81.1172 28.6641C80.1797 28.7188 79.6445 29.1562 79.6445 29.8516C79.6445 30.582 80.1875 31.0703 80.9961 31.0703ZM81.1484 30.4922C80.6602 30.4922 80.3359 30.2383 80.3359 29.8516C80.3359 29.4688 80.6484 29.2266 81.1953 29.1914L82.2812 29.125V29.457C82.2812 30.043 81.7891 30.4922 81.1484 30.4922ZM86.1406 31.0703C87.3164 31.0703 88.0391 30.2852 88.0391 29.0078C88.0391 27.7969 87.3398 27.0234 86.2422 27.0234C85.6172 27.0234 85.1094 27.2734 84.8438 27.7539H84.8125C84.9766 26.5391 85.3125 26.043 86.4414 26L86.7422 25.9883C87.2109 25.9688 87.6406 25.8672 87.7695 25.75V25.1562C87.5391 25.2773 87.1016 25.3555 86.7109 25.375L86.4102 25.3867C84.832 25.4453 84.2383 26.3789 84.2383 28.6211C84.2383 30.2344 84.8945 31.0703 86.1406 31.0703ZM86.1406 30.4688C85.375 30.4688 84.9336 29.9414 84.9336 29.0078C84.9336 28.1211 85.375 27.6172 86.1406 27.6172C86.9023 27.6172 87.3438 28.1211 87.3438 29.0078C87.3438 29.9414 86.9023 30.4688 86.1406 30.4688ZM90.9844 31.0703C92.1055 31.0703 92.8633 30.2617 92.8633 28.9688C92.8633 27.6719 92.1055 26.8672 90.9844 26.8672C89.8594 26.8672 89.1016 27.6719 89.1016 28.9688C89.1016 30.2617 89.8594 31.0703 90.9844 31.0703ZM90.9844 30.4727C90.2656 30.4727 89.793 29.9258 89.793 28.9688C89.793 28.0117 90.2656 27.4648 90.9844 27.4648C91.7031 27.4648 92.1719 28.0117 92.1719 28.9688C92.1719 29.9258 91.7031 30.4727 90.9844 30.4727ZM96.9414 26.9375H93.6445V27.4961H94.9531V31H95.6328V27.4961H96.9414V26.9375ZM98.7812 29.0469L100.527 31H101.402L99.457 28.8594L101.348 26.9375H100.508L98.7812 28.7344H98.75V26.9375H98.0703V31H98.75V29.0469H98.7812ZM105.09 29.8359C104.977 30.2188 104.598 30.4805 104.082 30.4805C103.352 30.4805 102.895 29.9688 102.895 29.1914V29.1523H105.809V28.8945C105.809 27.6641 105.133 26.8672 104.035 26.8672C102.914 26.8672 102.195 27.7227 102.195 28.9844C102.195 30.2617 102.902 31.0703 104.066 31.0703C104.953 31.0703 105.641 30.5469 105.758 29.8359H105.09ZM104.023 27.457C104.664 27.457 105.09 27.9414 105.105 28.6211H102.898C102.941 27.9453 103.387 27.457 104.023 27.457Z" fill="white"/>
<g opacity="0.7">
<path fill-rule="evenodd" clip-rule="evenodd" d="M21.4005 11C21.1005 11.3 21.0005 11.8 21.0005 12.4V34.5C21.0005 35.1 21.2005 35.6 21.5005 35.9L21.6005 36L34.0005 23.6V23.4L21.4005 11V11Z" fill="white"/>
<path fill-rule="evenodd" clip-rule="evenodd" d="M39.1005 27.5L35.0005 23.4V23.1L39.1005 19L39.2005 19.1L44.1005 21.9C45.5005 22.7 45.5005 24 44.1005 24.8L39.1005 27.5V27.5Z" fill="white"/>
<path fill-rule="evenodd" clip-rule="evenodd" d="M38.7005 28.2L34.5005 24L22.0005 36.5C22.5005 37 23.2005 37 24.1005 36.6L38.7005 28.2" fill="white"/>
<path fill-rule="evenodd" clip-rule="evenodd" d="M38.7005 18.6287L24.1005 10.3287C23.2005 9.82873 22.5005 9.92873 22.0005 10.4287L34.5005 22.8287L38.7005 18.6287V18.6287Z" fill="white"/>
<path fill-rule="evenodd" clip-rule="evenodd" d="M21.6603 35.2999C21.3603 34.9999 21.2603 34.4999 21.2603 33.8999V33.9999C21.2603 34.5999 21.4603 35.0999 21.7603 35.3999V35.2999H21.6603V35.2999Z" fill="black"/>
</g>
</svg>

<svg width="127" height="50" fill="none" xmlns="http://www.w3.org/2000/svg"><path fill-rule="evenodd" clip-rule="evenodd" d="M122.296 50H4.704C2.07 50 0 47.25 0 43.75V6.25C0 2.75 2.07 0 4.704 0h117.592C124.93 0 127 2.75 127 6.25v37.5c0 3.5-2.07 6.25-4.704 6.25z" fill="#004177"/><path opacity=".7" d="M59.004 21v-5.637h-4.418V21h.707v-4.996h3.016V21h.695zm3.543-4.133c-.59 0-1.063.301-1.313.758h-.015v-.688h-.645v5.418h.68V20.34h.016c.242.445.71.73 1.292.73 1.024 0 1.723-.828 1.723-2.101 0-1.274-.703-2.102-1.738-2.102zm-.133 3.606c-.695 0-1.164-.598-1.164-1.504 0-.903.469-1.504 1.164-1.504.723 0 1.176.586 1.176 1.504 0 .922-.453 1.504-1.176 1.504zM66.22 21l2.023-3.02h.031V21h.68v-4.063h-.672l-2.023 3.02h-.031v-3.02h-.68V21h.672zm5.281-1.793l.125-1.71h1.367V21h.68v-4.063h-2.66l-.156 2.254c-.051.747-.204 1.22-.606 1.22a.67.67 0 01-.207-.032v.613a.62.62 0 00.242.043c.856 0 1.133-.707 1.215-1.828zm5.32 1.863c1.121 0 1.88-.808 1.88-2.101 0-1.297-.759-2.102-1.88-2.102-1.125 0-1.882.805-1.882 2.102 0 1.293.757 2.101 1.882 2.101zm0-.597c-.718 0-1.191-.547-1.191-1.504s.473-1.504 1.191-1.504c.72 0 1.188.547 1.188 1.504s-.469 1.504-1.188 1.504zm3.418.527l1.64-1.953h.028V21h.672v-1.953h.031L84.25 21h.871l-1.836-2.14 1.774-1.922h-.828l-1.622 1.796h-.03v-1.797h-.673v1.797h-.027l-1.621-1.797h-.836l1.781 1.934L79.38 21h.86zm8.531-1.164c-.113.383-.492.645-1.007.645-.73 0-1.188-.512-1.188-1.29v-.039h2.914v-.258c0-1.23-.675-2.027-1.773-2.027-1.121 0-1.84.856-1.84 2.117 0 1.278.707 2.086 1.871 2.086.887 0 1.574-.523 1.692-1.234h-.669zm-1.066-2.379c.64 0 1.066.484 1.082 1.164h-2.207c.043-.676.488-1.164 1.125-1.164zM93.418 21h.68v-4.063h-.68v1.676H91.43v-1.675h-.68V21h.68v-1.828h1.988V21zm2.809 0l2.023-3.02h.031V21h.68v-4.063h-.672l-2.023 3.02h-.032v-3.02h-.68V21h.673zm6.886-1.164c-.113.383-.492.645-1.008.645-.73 0-1.187-.512-1.187-1.29v-.039h2.914v-.258c0-1.23-.676-2.027-1.773-2.027-1.121 0-1.84.856-1.84 2.117 0 1.278.707 2.086 1.871 2.086.887 0 1.574-.523 1.691-1.234h-.668zm-1.066-2.379c.641 0 1.066.484 1.082 1.164h-2.207c.043-.676.488-1.164 1.125-1.164zM56.227 31c.863 0 1.394-.45 1.394-1.168 0-.496-.336-.86-.848-.93v-.03c.375-.079.668-.466.668-.884 0-.652-.464-1.05-1.226-1.05h-1.738V31h1.75zm-1.07-3.512h.956c.426 0 .657.203.657.57 0 .395-.247.587-.758.587h-.856v-1.157zm0 1.703h.91c.593 0 .878.204.878.625 0 .41-.265.633-.758.633h-1.03v-1.258zm7.859-2.324c-.59 0-1.063.301-1.313.758h-.016v-.688h-.644v5.418h.68V30.34h.015c.242.445.711.73 1.293.73 1.024 0 1.723-.828 1.723-2.101 0-1.274-.703-2.102-1.738-2.102zm-.133 3.606c-.696 0-1.164-.598-1.164-1.504 0-.903.468-1.504 1.164-1.504.722 0 1.176.586 1.176 1.504 0 .922-.453 1.504-1.176 1.504zm4.324.597c.547 0 1.063-.304 1.305-.77h.015v.7h.645v-2.809c0-.808-.602-1.324-1.555-1.324-.96 0-1.562.54-1.61 1.242h.657c.086-.398.414-.644.938-.644.562 0 .89.297.89.793v.34l-1.164.066c-.937.055-1.472.492-1.472 1.188 0 .73.542 1.218 1.351 1.218zm.152-.578c-.488 0-.812-.254-.812-.64 0-.383.312-.625.86-.66l1.085-.067v.332c0 .586-.492 1.035-1.133 1.035zm4.606.578c.953 0 1.586-.508 1.586-1.258 0-.457-.278-.793-.813-.91v-.03a.907.907 0 00.7-.895c0-.66-.504-1.11-1.43-1.11-.86 0-1.445.426-1.531 1.098h.66c.054-.324.39-.531.87-.531.524 0 .766.25.766.597 0 .41-.273.614-.808.614h-.61v.554h.61c.613 0 .918.2.918.645 0 .386-.328.664-.918.664-.504 0-.84-.207-.918-.563h-.688c.07.688.715 1.125 1.606 1.125zm4.84-4.203c-.59 0-1.063.301-1.313.758h-.015v-.688h-.645v5.418h.68V30.34h.015c.242.445.711.73 1.293.73 1.024 0 1.723-.828 1.723-2.101 0-1.274-.703-2.102-1.738-2.102zm-.133 3.606c-.695 0-1.164-.598-1.164-1.504 0-.903.469-1.504 1.164-1.504.722 0 1.176.586 1.176 1.504 0 .922-.454 1.504-1.176 1.504zm4.324.597c.547 0 1.063-.304 1.305-.77h.015v.7h.645v-2.809c0-.808-.602-1.324-1.555-1.324-.96 0-1.562.54-1.61 1.242h.657c.086-.398.414-.644.938-.644.562 0 .89.297.89.793v.34l-1.164.066c-.937.055-1.473.492-1.473 1.188 0 .73.543 1.218 1.352 1.218zm.152-.578c-.488 0-.812-.254-.812-.64 0-.383.312-.625.86-.66l1.085-.067v.332c0 .586-.492 1.035-1.133 1.035zm4.993.578c1.175 0 1.898-.785 1.898-2.062 0-1.211-.7-1.985-1.797-1.985-.625 0-1.133.25-1.398.73h-.031c.164-1.214.5-1.71 1.628-1.753l.301-.012c.469-.02.899-.12 1.027-.238v-.594c-.23.121-.667.2-1.058.219l-.3.012c-1.579.058-2.173.992-2.173 3.234 0 1.613.656 2.45 1.903 2.45zm0-.601c-.766 0-1.207-.528-1.207-1.461 0-.887.441-1.39 1.207-1.39.761 0 1.203.503 1.203 1.39 0 .933-.442 1.46-1.203 1.46zm4.843.601c1.122 0 1.88-.808 1.88-2.101 0-1.297-.758-2.102-1.88-2.102-1.125 0-1.882.805-1.882 2.102 0 1.293.757 2.101 1.882 2.101zm0-.597c-.718 0-1.191-.547-1.191-1.504s.473-1.504 1.191-1.504c.72 0 1.188.547 1.188 1.504s-.469 1.504-1.188 1.504zm5.957-3.535h-3.297v.558h1.31V31h.679v-3.504h1.308v-.558zm1.84 2.109L100.527 31h.875l-1.945-2.14 1.891-1.922h-.84l-1.727 1.796h-.031v-1.797h-.68V31h.68v-1.953h.031zm6.309.789c-.113.383-.492.645-1.008.645-.73 0-1.187-.512-1.187-1.29v-.039h2.914v-.258c0-1.23-.676-2.027-1.774-2.027-1.121 0-1.84.856-1.84 2.117 0 1.278.707 2.086 1.871 2.086.887 0 1.575-.523 1.692-1.234h-.668zm-1.067-2.379c.641 0 1.067.484 1.082 1.164h-2.207c.043-.676.489-1.164 1.125-1.164z" fill="#fff"/><g opacity=".7" fill-rule="evenodd" clip-rule="evenodd"><path d="M21.4 11c-.3.3-.4.8-.4 1.4v22.1c0 .6.2 1.1.5 1.4l.1.1L34 23.6v-.2L21.4 11zm17.7 16.5L35 23.4v-.3l4.1-4.1.1.1 4.9 2.8c1.4.8 1.4 2.1 0 2.9l-5 2.7zm-.4.7L34.5 24 22 36.5c.5.5 1.2.5 2.1.1l14.6-8.4m0-9.571l-14.6-8.3c-.9-.5-1.6-.4-2.1.1l12.5 12.4 4.2-4.2z" fill="#fff"/><path d="M21.66 35.3c-.3-.3-.4-.8-.4-1.4v.1c0 .6.2 1.1.5 1.4v-.1h-.1z" fill="#000"/></g></svg>
